lib/svgs/circle-question.svg

<?xml version="1.0" encoding="UTF-8" standalone="no"?>
<svg width="20px" height="20px" viewBox="0 0 20 20" version="1.1" xmlns="http://www.w3.org/2000/svg" xmlns:xlink="http://www.w3.org/1999/xlink">
    <defs></defs>
    <g id="Icons" stroke="none" stroke-width="1" fill="none" fill-rule="evenodd">
        <g id="Web" transform="translate(-193.000000, -2148.000000)" fill="#000000">
            <g id="tip/circle-question" transform="translate(193.000000, 2148.000000)">
                <path d="M10,2 C5.582,2 2,5.582 2,10 C2,14.418 5.582,18 10,18 C14.418,18 18,14.418 18,10 C18,5.582 14.418,2 10,2 L10,2 Z M10,3.2 C13.75,3.2 16.8,6.25 16.8,10 C16.8,13.75 13.75,16.8 10,16.8 C6.25,16.8 3.2,13.75 3.2,10 C3.2,6.25 6.25,3.2 10,3.2 L10,3.2 Z M10.567,13.905 C10.567,14.283 10.261,14.589 9.883,14.589 C9.505,14.589 9.198,14.283 9.198,13.905 C9.198,13.527 9.505,13.221 9.883,13.221 C10.261,13.221 10.567,13.527 10.567,13.905 L10.567,13.905 Z M9.8828,12.1393 C9.5508,12.1393 9.2828,11.8703 9.2828,11.5393 L9.2828,11.2003 C9.2828,10.4173 9.7468,9.7093 10.4638,9.3963 C10.9928,9.1643 11.3358,8.6413 11.3358,8.0633 C11.3358,7.2623 10.6838,6.6113 9.8828,6.6113 C9.3408,6.6113 8.8478,6.9093 8.5958,7.3893 C8.4418,7.6833 8.0788,7.7953 7.7858,7.6413 C7.4918,7.4883 7.3798,7.1253 7.5328,6.8313 C7.9928,5.9553 8.8938,5.4103 9.8828,5.4103 C11.3458,5.4103 12.5358,6.6003 12.5358,8.0633 C12.5358,9.1183 11.9108,10.0733 10.9448,10.4953 C10.6638,10.6183 10.4828,10.8943 10.4828,11.2003 L10.4828,11.5393 C10.4828,11.8703 10.2148,12.1393 9.8828,12.1393 L9.8828,12.1393 Z" id="Shape"></path>
            </g>
        </g>
    </g>
</svg>

<svg xmlns="http://www.w3.org/2000/svg" viewBox="0 0 20 20">
    <path fill="#000" fill-rule="evenodd" d="M10 2a8 8 0 1 0 0 16 8 8 0 0 0 0-16zm0 1.2c3.75 0 6.8 3.05 6.8 6.8s-3.05 6.8-6.8 6.8-6.8-3.05-6.8-6.8S6.25 3.2 10 3.2zm.567 10.705a.684.684 0 1 1-1.367 0 .684.684 0 0 1 1.367 0zm-.684-1.766a.6.6 0 0 1-.6-.6V11.2c0-.783.464-1.49 1.18-1.804a1.457 1.457 0 0 0-.58-2.785 1.45 1.45 0 0 0-1.287.778.6.6 0 1 1-1.063-.558 2.648 2.648 0 0 1 5.003 1.232c0 1.055-.625 2.01-1.591 2.432a.77.77 0 0 0-.462.705v.34a.6.6 0 0 1-.6.6z"/>
</svg>
